X: 191
T: The Skylark
C:James Morrison
R: reel
M:C|
K:D
L: 1/8
"D"agfg "G"efdB |"D" AF ~F2 DFAd |"G" BG (3GFG "A"EFGE |"D" FAA2 FAdf  |
"D"agfg "G"efdB |"D" AF ~F2 DFAd |"G" BGGF     G2ag |"A" faeg "D"fdd2 :|
|:"D"a2fd Adfd |"A" efed     cAA2 |"D" a2fa "G" bged |"Em" Beed "(A)"efge  |
"D"f2df "G"g2eg |"D" f2df "Em" edBA |"D" FA ~A2 "G"GBag |"A" faeg "D"fdd2 :|


